X:1
C:Haydn
%%score { 1 | 2 }
L:1/8
Q:1/4=100
M:4/4
I:linebreak $
K:Dmin
V:1 treble 
V:2 bass 
V:1
"^Moderato" !3!A>B | (cA F4) (!4!c!2!A) |"^BP" (dB F4) (!3!Bd) |"C7" (dcBA) (!4!AGFE) |$ %4
"F" (!3!EF"C" C4) !4!c>c |"F" cd/c/ (BA)"C7" (!4!AGFE) |"F" (E2 F4) !3!A>B |$"F" (cA F4) (cA) | %8
"Bb" (dB F4) (Bd) |"F" (dcBA)"C7" (AGFE) |$"F" (EF"C" C4) c>c |"F" cd/c/ (BA)"C7" (AGFE) | %12
"F" (E2 F4) |] %13
V:2
 z2 | !5!F,!1!C!3!A,!1!C F,CA,C | F,DB,D F,DB,D | F,C!2!A,C !4!E,B,C,B, |$ F,CA,C E,CG,B, | %5
 F,CA,C E,B,C,B, | F,CA,C F,2 z2 |$ F,CA,C F,CA,C | F,DB,D F,DB,D | F,CA,C E,B,C,B, |$ %10
 F,CA,C E,CG,B, | F,CA,C E,B,C,B, | F,CA,C F,2 |] %13

